X:1
T:Scorgi dolce Signor
T:Giammateo Asola
T:Source : Madrigali a due voci---Venetia---G.Vincenti---1587. Editor : André Vierendeels (23/04/17).
T:Notes : Original clef C4, (Fuga di un tempo e mezo, una quinta piu alto) Original note values have been halved Editorial accidentals above the staff
T:Scorgi dolce Signor
T:©
T:©
T:©
C:Giammateo Asola
Z:©
%%score [ 1 2 ]
L:1/8
Q:1/4=120
M:2/2
K:F
V:1 treble nm="Alto" snm="A"
V:2 treble-8 nm="Tenor" snm="T"
V:1
 z8 | z4 A4 | D2 A2 G2 F2 | E2 C2 F2 E2 | FGAF GFED | CD E2 A,4 | z2 E2 E2 E2 | %7
w: |Scor-|gi dol- ce Si-|gnor tut- t'i miei|pas- * * * * * * *|* * * si,|a piu si-|
"^-natural" C2 A,2 B,2 B,2 |"^-natural" E2 B,2 C4 |"^b" B,4 z2 B,2 | B,2 C2 D2 A,2 | D3 C B,4 | %12
w: cur e piu chia-|ro ca- mi-|no, col|tuo fa- vor di-|vi- * *|
 A,4 z2 A2 | A2 A2 G2 G2 | A2 A2 E2 G2 | F4 E4 | z2 D2 E2 F2 | GGED D2 F2 | E4 DDGG | %19
w: no, ch'i|sen- si di rag-|gion tan- ti son|cas- si,|tu ve- hi'ho-|mai che la mia vi- ta'è|ta- le, ch'u- scir d'un|
 F2 E A2 G/F/ G2 | A2 D2 AA G2- | GE F2 E2 D2 | E2 F2 G2 A2 | G G2 F G2 E2 | D8- | D8- | D8 |] %27
w: tan- to ma- * * *|le, ch'u- scir d'un tan-|* to ma- le, spe-|ra tua gran bon-|tà som- ma'in- fi- ni-|ta.|_||
V:2
 d4 G2 d2 | c2 B2 A2 F2 | B2 A2 BcdB |"^-natural" cBAG FG A2 | D4 z2 A2 | A2 A2 F2 D2 | %6
w: Scor- gi dol-|ce Si- gnor tut-|t'i miei pas- * * *||si, a|piu si- cur e|
 E2 E2 A2 E2 | F4 E4 | z2 E2 E2 F2 | G2 D2 G3 F |"^b" E4 D4 | z2 d2 d2 d2 | c2 c2 d2 d2 | %13
w: piu chia- ro ca-|mi- no,|col tuo fa-|vor di- vi- *|* no,|ch'i sen- si|di rag- gion tan-|
 A2 c2 B4 | A4 z2 G2 | A2 B2 ccAG | G2 B2 A4 | GGcc B2 Ad- |"^-natural" dc/B/ c2 d2 G2 | %19
w: ti son cas-|si, tu|ve- di'ho- maiche _ la mia|vi- ta'e ta-|le, ch'u- scir d'un tan- to ma-|* * * * le, ch'u-|
 dd c3 A B2 | A2 G2 A2 B2 | c2 d2 c c2 B | c2 A2 G2 z F | GGAA G c2 A | B2 A2 G2 z c | %25
w: scir d'un tan- to ma-|le, spe- ra tua|gran bon- tà som- ma'in-|fi- ni- ta, e|te- co far nel ciel lie- ta|sa- li- ta, nel|
 BGcc A d2 c | d8 |] %27
w: ciel lie- ta sa- li- * *|ta.|

